src/icons/svgs/24/chevron-up.svg

<svg width="24" height="24" viewBox="0 0 24 24" fill="none" xmlns="http://www.w3.org/2000/svg">
<path d="M3.30924 15.3994L11.2883 8.29489C11.5555 8.08614 11.806 8 12.019 8C12.2319 8 12.5188 8.0861 12.7117 8.2595L20.6907 15.364C21.0913 15.7191 21.1043 16.3084 20.7207 16.6793C20.3397 17.0528 19.7032 17.0649 19.3049 16.7072L12.019 10.221L4.69545 16.7396C4.29879 17.0973 3.6608 17.0851 3.27959 16.7117C2.89588 16.3422 2.90841 15.7525 3.30924 15.3994Z" fill="black"/>
</svg>

<svg width="24" height="24" viewBox="0 0 24 24" xmlns="http://www.w3.org/2000/svg">
    <path d="m3.31 15.4 7.978-7.105c.268-.209.518-.295.731-.295.213 0 .5.086.693.26l7.979 7.104c.4.355.413.944.03 1.315a1.051 1.051 0 0 1-1.416.028l-7.286-6.486-7.324 6.519a1.051 1.051 0 0 1-1.415-.028.879.879 0 0 1 .03-1.313z"/>
</svg>
